X: 163
T: Song Concerning Sitting Crow
C: Teton Sioux band 1911-1914
N: Derived from sioux158.krn
O: South Dakota, U.S.A.
N: Teton Sioux Music by Frances Densmore, 1918
Z: transcribed to **kern format by Craig Sapp
L: 1/8
M: 2/4
Q: 1/4=58
K: D clef=bass
%%linebreak <none>
F4 [I:setbarnb 2]| 
E> FE2 ||  
[M:3/4]D2D4- | 
D2B,2D2 | 
E2D2E/ D3/ ||  
[M:2/4]B,2B,2- | 
B,4 | 
D< B,-B,2- | 
B,4 | 
F,7/E/ | 
D> D D3/ D/ | 
D> D B,3/ E/ | 
D2(E/ D) B,/ | 
B,2A,2- | 
A,3B,/ F,/ | 
F,2E,3/ F,/ | 
E,2D,2 | 
D,4- | 
D,2B,, D,/ D,/ | 
E,2D,2 | 
E,< D, B,,3/ B,,/ | 
B,,4 |]  



